packages/form-js-viewer/src/render/components/icons/Checklist.svg

<svg xmlns="http://www.w3.org/2000/svg" width="54" height="54" viewBox="0 0 54 54" fill="currentcolor">
<path fill-rule="evenodd" clip-rule="evenodd" d="M18 12H12L12 18H18V12ZM12 10C10.8954 10 10 10.8954 10 12V18C10 19.1046 10.8954 20 12 20H18C19.1046 20 20 19.1046 20 18V12C20 10.8954 19.1046 10 18 10H12Z"/>
<path fill-rule="evenodd" clip-rule="evenodd" d="M18 36H12L12 42H18V36ZM12 34C10.8954 34 10 34.8954 10 36V42C10 43.1046 10.8954 44 12 44H18C19.1046 44 20 43.1046 20 42V36C20 34.8954 19.1046 34 18 34H12Z"/>
<path fill-rule="evenodd" clip-rule="evenodd" d="M18 24H12L12 30H18V24ZM12 22C10.8954 22 10 22.8954 10 24V30C10 31.1046 10.8954 32 12 32H18C19.1046 32 20 31.1046 20 30V24C20 22.8954 19.1046 22 18 22H12Z"/>
<path d="M23 14.5C23 13.9477 23.4477 13.5 24 13.5H43C43.5523 13.5 44 13.9477 44 14.5V15.5C44 16.0523 43.5523 16.5 43 16.5H24C23.4477 16.5 23 16.0523 23 15.5V14.5Z"/>
<path d="M23 26.5C23 25.9477 23.4477 25.5 24 25.5H43C43.5523 25.5 44 25.9477 44 26.5V27.5C44 28.0523 43.5523 28.5 43 28.5H24C23.4477 28.5 23 28.0523 23 27.5V26.5Z"/>
<path d="M23 38.5C23 37.9477 23.4477 37.5 24 37.5H43C43.5523 37.5 44 37.9477 44 38.5V39.5C44 40.0523 43.5523 40.5 43 40.5H24C23.4477 40.5 23 40.0523 23 39.5V38.5Z"/>
</svg>

<svg xmlns="http://www.w3.org/2000/svg" xmlns:xlink="http://www.w3.org/1999/xlink" width="54" height="54" fill="currentcolor"><g fill-rule="evenodd"><use xlink:href="#a"/><use xlink:href="#a" y="24"/><use xlink:href="#a" y="12"/></g><use xlink:href="#b"/><use xlink:href="#b" y="12"/><use xlink:href="#b" y="24"/><defs><path id="a" d="M18 12h-6v6h6v-6zm-6-2a2 2 0 0 0-2 2v6a2 2 0 0 0 2 2h6a2 2 0 0 0 2-2v-6a2 2 0 0 0-2-2h-6z"/><path id="b" d="M23 14.5a1 1 0 0 1 1-1h19a1 1 0 0 1 1 1v1a1 1 0 0 1-1 1H24a1 1 0 0 1-1-1v-1z"/></defs></svg>
